assets/img/braze_icons/glasses-02.svg

<svg fill="none" height="24" viewBox="0 0 24 24" width="24" xmlns="http://www.w3.org/2000/svg"><path clip-rule="evenodd" d="m5.96091 4c.01287.00001.02592.00001.03916.00001.55229 0 1 .44771 1 1 0 .55228-.44771 1-1 1-.28538 0-.37188.00074-.43933.00596-.90821.07028-1.65419.74538-1.81449 1.64209-.01191.0666-.02125.1526-.04965.43656l-.26225 2.62248c1.92057-1.1498 4.44654-.89734 6.10126.7574.50539.5053.87999 1.092 1.12369 1.7179.8763-.2432 1.8053-.2432 2.6815 0 .2438-.6259.6184-1.2125 1.1237-1.7179 1.6548-1.65474 4.1807-1.9072 6.1013-.7574l-.2623-2.62248c-.0283-.28395-.0377-.36996-.0496-.43656-.1603-.89671-.9063-1.57181-1.8145-1.64209-.0674-.00522-.1539-.00596-.4393-.00596-.5523 0-1-.44772-1-1 0-.55229.4477-1 1-1l.0391-.00001c.2292-.00003.3996-.00006.5545.01193 1.8164.14055 3.3084 1.49077 3.629 3.28419.0273.15299.0443.32249.067.55058l.621 6.2094c.0588.3076.0886.6196.0894.9317.0001.0092.0001.0183 0 .0274-.0039 1.2745-.492 2.5479-1.4645 3.5203-1.9526 1.9527-5.1184 1.9527-7.0711 0-.9326-.9326-1.4198-2.142-1.4615-3.3638-.6474-.2289-1.3585-.2289-2.0059-.0001-.0417 1.2218-.5288 2.4313-1.46149 3.3639-1.95262 1.9527-5.11844 1.9527-7.07107 0-.97244-.9724-1.46059-2.2457-1.46444-3.5203-.00013-.0091-.000133-.0182-.00001-.0274.00076-.3121.03056-.6241.08939-.9317l.61705-6.17048c.00131-.01318.00261-.02617.00389-.03897.02277-.22806.03969-.39754.06704-.55053.32059-1.79342 1.81256-3.14364 3.62898-3.28419.15495-.01199.32527-.01196.55447-.01193z" fill="#801ed7" fill-rule="evenodd"/></svg>

<svg width="24" height="24" viewBox="0 0 24 24" fill="none" xmlns="http://www.w3.org/2000/svg">
<path fill-rule="evenodd" clip-rule="evenodd" d="M5.96091 4C5.97378 4.00001 5.98683 4.00001 6.00007 4.00001C6.55236 4.00001 7.00007 4.44772 7.00007 5.00001C7.00007 5.55229 6.55236 6.00001 6.00007 6.00001C5.71469 6.00001 5.62819 6.00075 5.56074 6.00597C4.65253 6.07625 3.90655 6.75135 3.74625 7.64806C3.73434 7.71466 3.725 7.80066 3.6966 8.08462L3.43435 10.7071C5.35492 9.5573 7.88089 9.80976 9.53561 11.4645C10.041 11.9698 10.4156 12.5565 10.6593 13.1824C11.5356 12.9392 12.4646 12.9392 13.3408 13.1824C13.5846 12.5565 13.9592 11.9699 14.4645 11.4645C16.1193 9.80976 18.6452 9.5573 20.5658 10.7071L20.3035 8.08462C20.2752 7.80067 20.2658 7.71466 20.2539 7.64806C20.0936 6.75135 19.3476 6.07625 18.4394 6.00597C18.372 6.00075 18.2855 6.00001 18.0001 6.00001C17.4478 6.00001 17.0001 5.55229 17.0001 5.00001C17.0001 4.44772 17.4478 4.00001 18.0001 4.00001L18.0392 4C18.2684 3.99997 18.4388 3.99994 18.5937 4.01193C20.4101 4.15248 21.9021 5.5027 22.2227 7.29612C22.25 7.44911 22.267 7.61861 22.2897 7.8467L22.9107 14.0561C22.9695 14.3637 22.9993 14.6757 23.0001 14.9878C23.0002 14.997 23.0002 15.0061 23.0001 15.0152C22.9962 16.2897 22.5081 17.5631 21.5356 18.5355C19.583 20.4882 16.4172 20.4882 14.4645 18.5355C13.5319 17.6029 13.0447 16.3935 13.003 15.1717C12.3556 14.9428 11.6445 14.9428 10.9971 15.1716C10.9554 16.3934 10.4683 17.6029 9.53561 18.5355C7.58299 20.4882 4.41717 20.4882 2.46454 18.5355C1.4921 17.5631 1.00395 16.2898 1.0001 15.0152C0.99997 15.0061 0.999967 14.997 1.00009 14.9878C1.00085 14.6757 1.03065 14.3637 1.08948 14.0561L1.70653 7.88562C1.70784 7.87244 1.70914 7.85945 1.71042 7.84665C1.73319 7.61859 1.75011 7.44911 1.77746 7.29612C2.09805 5.5027 3.59002 4.15248 5.40644 4.01193C5.56139 3.99994 5.73171 3.99997 5.96091 4Z" fill="#801ED7"/>
</svg>
